!!!OTL: 586. Der Soldat.
!!!COM: Fr. Silcher
!!!ODT: 1837
!!!ARE: Europa, Mitteleuropa, Deutschland
!!!SCT: B0586
!!!TXL: @@DE
!!!YEM: Copyright 1995, estate of Helmut Schaffrath.
**kern	**text
*ICvox	*
*Ivox	*
*clefG2	*
*M4/4	*
*met(c)	*
*k[b-e-a-]	*
*E-:	*
!LO:TX:a:t=Langſam.	!
{8e-	Es
=1	=1
4e-	geht
8.e-	bei
16e-	ge-
4e-	-dämpf-
4g	-ter
=2	=2
4f	Trom-
8.fL	-mel
16gJ	.
4f	Klang,
8r}	.
{8f	wie
=3	=3
4f	weit
8.f	noch
16f	die
4f	Stät-
8.a-	-te,
16a-	der
=4	=4
4g	Weg
8.gL	wie
16a-J	.
4g	lang!
8r}	.
{8e-	O
=5	=5
4cc	wär'
8.cc	er
16cc	ʒur
(4ee-	Ruhe
8dd)	.
8cc	und
=6	=6
8b-L	al-
8a-J	.
8.g	-les
16a-	vor-
4b-	-bei!
8r}	.
{8b-	Jch
=7	=7
(4b-	glaub',
8a-)	.
8g	es
8ccL	bricht
8b-J	.
8a-	mir
8g	das
=8	=8
4f	Herʒ
(8gL	ent-
8a-J)	.
4g	-ʒwei,
8r}	.
{8b-	ich
=9	=9
(4ee-	glaub',
8.b-)	.
16ee-	es
4gg	bricht
(8.ff	mir
16ee-)	das
=10	=10
4dd	Herʒ
(8.ee-	ent-
16ff)	.
4ee-	-ʒwei.
8r}	.
==	==
!!!AGN: Staende -, Soldaten - Lied, Klage, Tod
!!!GTL: Soldatenlieder
!!!ONB: ESAC (Essen Associative Code) Database: BOEHME
!!!AMT: simple quadruple
!!!AIN: vox
!!!EED: Helmut Schaffrath
!!!EEV: 1.0
!!Mel. 1837 v. Silcher.
!!@@COMMENT:"Text von Adelb. v. Chamiſſo 1832, nach dem Däniſchen von H. C. Anderſen. Ʒuerſt gedr. im
!!Morgenblatt" 1835. Nr. 54 vom 4. Märʒ. Mel. für Männerſtimmen komponiert von Fr. Silcher
!!1837. Volkslieder für Männerſtimmen. Heft 6. Nr. 4."
!!@@END:
!!!Text: A. von Chamisso
!!!URL-scan: https://archive.org/details/BoehmeVtLieder1895/page/n465/mode/2up
!!!ENC: Anna Maria Matuszewska
!!!EEV: 2024/12/07
*-	*-
